svg/u2764_200d_1fa79.svg

<svg viewBox="0 0 128 128" xmlns="http://www.w3.org/2000/svg">
  <g>
    <path d="M93.99,8.97c-21.91,0-29.96,22.39-29.96,22.39S56.09,8.97,34.03,8.97 c-16.58,0-35.48,13.14-28.5,43.01c6.98,29.87,58.56,67.08,58.56,67.08s51.39-37.21,58.38-67.08 C129.45,22.11,111.91,8.97,93.99,8.97z" fill="#F44336"/>
    <g>
      <path d="M30.65,11.2c17.2,0,25.74,18.49,28.5,25.98c0.39,1.07,1.88,1.1,2.33,0.06L64,31.35 C60.45,20.01,50.69,8.97,34.03,8.97c-6.9,0-14.19,2.28-19.86,7.09C19.18,12.77,25.05,11.2,30.65,11.2z" fill="#CC3333"/>
      <path d="M93.99,8.97c-5.29,0-10.11,1.15-13.87,3.47c2.64-1.02,5.91-1.24,9.15-1.24 c16.21,0,30.72,12.29,24.17,40.7c-5.62,24.39-38.46,53.98-48.49,65.27c-0.64,0.72-0.86,1.88-0.86,1.88s51.39-37.21,58.38-67.08 C129.45,22.11,111.94,8.97,93.99,8.97z" fill="#CC3333"/>
    </g>
  </g>
  <g>
    <g>
      <path d="M64.88,29.38c-0.56,0-1.12,0.01-1.67,0.01c0.56,1.21,0.83,1.96,0.83,1.96S64.31,30.6,64.88,29.38z" fill="#F5F5F5"/>
      <path d="M123.13,30.93c-18.99-1.27-51.24-1.54-59.93-1.54C37.44,29.54,15.19,30.5,5.08,31 C3.65,36.77,3.6,43.73,5.53,51.97c0.08,0.34,0.93,3.19,1.02,3.53c16.86-0.83,71.11-5.62,115.68-2.58 c0.08-0.32,0.17-0.63,0.24-0.94C124.4,43.7,124.45,36.71,123.13,30.93z" fill="#F5F5F5"/>
      <path d="M123.04,31.04l-14.67-0.11c-4.92-0.02-9.84,0-14.76,0.05l-7.38,0.08l-7.38,0.03 c-4.92,0.03-9.84,0.08-14.74,0.17c-4.9,0.11-9.82,0.27-14.73,0.45L42.01,32l-7.37,0.23C24.83,32.57,15.01,33,5.2,33.55l2.34-1.93 c-0.88,3.72-1.07,7.63-0.75,11.53c0.16,1.95,0.45,3.9,0.83,5.84c0.2,0.97,0.39,1.93,0.68,2.91l0.85,2.92l-2.73-2l28.88-1.59 c9.65-0.5,19.31-0.9,28.98-1.15c9.67-0.15,19.35-0.11,29.03,0.15c2.42,0.04,4.84,0.14,7.26,0.24c2.42,0.1,4.84,0.17,7.25,0.33 c4.83,0.27,9.66,0.73,14.47,1.17l-1.01,0.73c0.51-1.73,0.94-3.52,1.29-5.31c0.35-1.79,0.61-3.6,0.78-5.43 c0.16-1.82,0.24-3.65,0.19-5.49c-0.03-0.92-0.07-1.83-0.17-2.75c-0.04-0.46-0.1-0.91-0.16-1.37 C123.14,31.86,123.08,31.5,123.04,31.04z M123.23,30.82c0.27,0.99,0.42,1.91,0.55,2.82c0.14,0.92,0.23,1.84,0.3,2.77 c0.14,1.85,0.14,3.71,0.04,5.57c-0.21,3.71-0.81,7.39-1.73,10.99l-0.04,0.14l-0.14-0.01c-9.63-0.62-19.27-0.89-28.92-0.94 c-9.65-0.06-19.29,0.12-28.93,0.46c-9.64,0.33-19.28,0.8-28.91,1.37L6.57,55.8l-0.24,0.01l-0.07-0.24L5.4,52.59 c-0.29-1-0.48-2.02-0.68-3.04c-0.39-2.04-0.67-4.11-0.83-6.18C3.58,39.21,3.81,35,4.81,30.94l0.05-0.2l0.2-0.01 c19.67-0.94,39.35-1.47,59.04-1.55c9.85,0.04,19.69,0.19,29.53,0.41c4.92,0.12,9.84,0.26,14.76,0.45l7.38,0.32l3.69,0.19 L123.23,30.82z" fill="#AAAAAA"/>
    </g>
    <path d="M110.67,13.36c-16.36,4.29-31.37,9.1-44.7,13.9C45.24,33.24,14.98,48.57,5.89,53.39 c1.77,6.35,5.46,13,10.16,19.53c13.13-6.93,53.59-26.85,107.45-40.12C121.94,23.56,117.05,17.18,110.67,13.36z" fill="#F5F5F5"/>
    <path d="M110.64,13.51l-13.32,4.3c-4.45,1.46-8.87,2.98-13.27,4.56l-13.17,4.81 c-4.39,1.76-8.92,3.07-13.21,4.75c-4.34,1.65-8.62,3.48-12.88,5.36c-2.13,0.95-4.25,1.91-6.36,2.9 c-2.13,0.95-4.24,1.94-6.35,2.92c-8.43,3.97-16.8,8.14-25.01,12.52l1.26-2.92c0.95,3.3,2.4,6.52,4.1,9.63 c1.71,3.11,3.68,6.1,5.8,9.01l-3.43-0.81c4.27-2.26,8.62-4.35,12.98-6.4c4.36-2.05,8.76-4,13.18-5.92 c8.85-3.8,17.8-7.36,26.84-10.64c9.06-3.25,18.26-6.09,27.49-8.78c9.24-2.67,18.56-5.03,27.96-7.02l-0.79,1.2 c-0.53-3.85-1.72-7.64-3.75-10.99c-1.01-1.67-2.21-3.24-3.57-4.68C113.81,15.88,112.2,14.57,110.64,13.51z M110.69,13.21 c1.84,1.08,3.38,2.27,4.86,3.68c1.46,1.39,2.75,2.96,3.85,4.65c2.21,3.38,3.59,7.26,4.28,11.23l0.03,0.16l-0.16,0.04 c-9.28,2.36-18.52,4.88-27.66,7.73c-9.14,2.86-18.21,5.94-27.18,9.28c-8.97,3.34-17.85,6.95-26.62,10.79 c-8.76,3.86-17.42,7.96-25.89,12.41l-0.23,0.12l-0.15-0.21c-2.15-3-4.17-6.12-5.92-9.38c-1.75-3.26-3.26-6.67-4.26-10.25 l-0.06-0.21l0.2-0.1c8.3-4.35,16.73-8.47,25.24-12.39c8.52-3.9,17.14-7.6,25.97-10.78c4.41-1.62,8.94-2.82,13.32-4.47 c4.42-1.55,8.87-3.03,13.33-4.45C92.58,18.2,101.5,15.59,110.69,13.21z" fill="#AAAAAA"/>
  </g>
  <path d="M123.93,36.28c-1.62-18.2-12.97-22.75-13.26-22.92c-2.31,0.61-4.58,1.22-6.84,1.85 c8.84,5.66,14.04,17.48,9.61,36.69c-0.04,0.17-0.08,0.33-0.13,0.5c3,0.16,5.98,0.32,8.91,0.52c0.08-0.32,0.17-0.63,0.24-0.94 C122.6,51.4,124.43,41.93,123.93,36.28z" fill="#AAAAAA"/>
  <polygon fill="#666666" points="114.72,33.68 114.87,35.01 123.93,36.28 123.51,32.79 "/>
  <path d="M16.5,25.43c-0.77-3.42,4.73-9.73,12.56-9.91c6.98-0.16,6.42,6.04,1.74,8.69 C26.01,26.9,17.13,28.24,16.5,25.43z" fill="#FF8A80"/>
</svg>

<svg viewBox="0 0 128 128" xmlns="http://www.w3.org/2000/svg">
  <defs/>
  <path d="M93.99,8.97 C72.08,8.97 64.03,31.36 64.03,31.36 C64.03,31.36 56.09,8.97 34.03,8.97 C17.45,8.97 -1.45,22.11 5.53,51.98 C12.51,81.85 64.09,119.06 64.09,119.06 C64.09,119.06 115.48,81.85 122.47,51.98 C129.45,22.11 111.91,8.97 93.99,8.97 Z" fill="#F44336"/>
  <path d="M30.65,11.2 C47.85,11.2 56.39,29.69 59.15,37.18 C59.54,38.25 61.03,38.28 61.48,37.24 L64,31.35 C60.45,20.01 50.69,8.97 34.03,8.97 C27.13,8.97 19.84,11.25 14.17,16.06 C19.18,12.77 25.05,11.2 30.65,11.2 Z" fill="#CC3333"/>
  <path d="M93.99,8.97 C88.7,8.97 83.88,10.12 80.12,12.44 C82.76,11.42 86.03,11.2 89.27,11.2 C105.48,11.2 119.99,23.49 113.44,51.9 C107.82,76.29 74.98,105.88 64.95,117.17 C64.31,117.89 64.09,119.05 64.09,119.05 C64.09,119.05 115.48,81.84 122.47,51.97 C129.45,22.11 111.94,8.97 93.99,8.97 Z" fill="#CC3333"/>
  <path d="M64.88,29.38 C64.32,29.38 63.76,29.39 63.21,29.39 C63.77,30.6 64.04,31.35 64.04,31.35 C64.04,31.35 64.31,30.6 64.88,29.38 Z" fill="#F5F5F5"/>
  <path d="M123.13,30.93 C104.14,29.66 71.89,29.39 63.2,29.39 C37.44,29.54 15.19,30.5 5.08,31 C3.65,36.77 3.6,43.73 5.53,51.97 C5.61,52.31 6.46,55.16 6.55,55.5 C23.41,54.67 77.66,49.88 122.23,52.92 C122.31,52.6 122.4,52.29 122.47,51.98 C124.4,43.7 124.45,36.71 123.13,30.93 Z" fill="#F5F5F5"/>
  <path d="M123.04,31.04 L108.37,30.93 C103.45,30.91 98.53,30.93 93.61,30.98 L86.23,31.06 L78.85,31.09 C73.93,31.12 69.01,31.17 64.11,31.26 C59.21,31.37 54.29,31.53 49.38,31.71 L42.01,32 L34.64,32.23 C24.83,32.57 15.01,33 5.2,33.55 L7.54,31.62 C6.66,35.34 6.47,39.25 6.79,43.15 C6.95,45.1 7.24,47.05 7.62,48.99 C7.82,49.96 8.01,50.92 8.3,51.9 L9.15,54.82 L6.42,52.82 L35.3,51.23 C44.95,50.73 54.61,50.33 64.28,50.08 C73.95,49.93 83.63,49.97 93.31,50.23 C95.73,50.27 98.15,50.37 100.57,50.47 C102.99,50.57 105.41,50.64 107.82,50.8 C112.65,51.07 117.48,51.53 122.29,51.97 L121.28,52.7 C121.79,50.97 122.22,49.18 122.57,47.39 C122.92,45.6 123.18,43.79 123.35,41.96 C123.51,40.14 123.59,38.31 123.54,36.47 C123.51,35.55 123.47,34.64 123.37,33.72 C123.33,33.26 123.27,32.81 123.21,32.35 C123.14,31.86 123.08,31.5 123.04,31.04 Z M123.23,30.82 C123.5,31.81 123.65,32.73 123.78,33.64 C123.92,34.56 124.01,35.48 124.08,36.41 C124.22,38.26 124.22,40.12 124.12,41.98 C123.91,45.69 123.31,49.37 122.39,52.97 L122.35,53.11 L122.21,53.1 C112.58,52.48 102.94,52.21 93.29,52.16 C83.64,52.1 74,52.28 64.36,52.62 C54.72,52.95 45.08,53.42 35.45,53.99 L6.57,55.8 L6.33,55.81 L6.26,55.57 L5.4,52.59 C5.11,51.59 4.92,50.57 4.72,49.55 C4.33,47.51 4.05,45.44 3.89,43.37 C3.58,39.21 3.81,35 4.81,30.94 L4.86,30.74 L5.06,30.73 C24.73,29.79 44.41,29.26 64.1,29.18 C73.95,29.22 83.79,29.37 93.63,29.59 C98.55,29.71 103.47,29.85 108.39,30.04 L115.77,30.36 L119.46,30.55 L123.23,30.82 Z" fill="#AAAAAA"/>
  <path d="M110.67,13.36 C94.31,17.65 79.3,22.46 65.97,27.26 C45.24,33.24 14.98,48.57 5.89,53.39 C7.66,59.74 11.35,66.39 16.05,72.92 C29.18,65.99 69.64,46.07 123.5,32.8 C121.94,23.56 117.05,17.18 110.67,13.36 Z" fill="#F5F5F5"/>
  <path d="M110.64,13.51 L97.32,17.81 C92.87,19.27 88.45,20.79 84.05,22.37 L70.88,27.18 C66.49,28.94 61.96,30.25 57.67,31.93 C53.33,33.58 49.05,35.41 44.79,37.29 C42.66,38.24 40.54,39.2 38.43,40.19 C36.3,41.14 34.19,42.13 32.08,43.11 C23.65,47.08 15.28,51.25 7.07,55.63 L8.33,52.71 C9.28,56.01 10.73,59.23 12.43,62.34 C14.14,65.45 16.11,68.44 18.23,71.35 L14.8,70.54 C19.07,68.28 23.42,66.19 27.78,64.14 C32.14,62.09 36.54,60.14 40.96,58.22 C49.81,54.42 58.76,50.86 67.8,47.58 C76.86,44.33 86.06,41.49 95.29,38.8 C104.53,36.13 113.85,33.77 123.25,31.78 L122.46,32.98 C121.93,29.13 120.74,25.34 118.71,21.99 C117.7,20.32 116.5,18.75 115.14,17.31 C113.81,15.88 112.2,14.57 110.64,13.51 Z M110.69,13.21 C112.53,14.29 114.07,15.48 115.55,16.89 C117.01,18.28 118.3,19.85 119.4,21.54 C121.61,24.92 122.99,28.8 123.68,32.77 L123.71,32.93 L123.55,32.97 C114.27,35.33 105.03,37.85 95.89,40.7 C86.75,43.56 77.68,46.64 68.71,49.98 C59.74,53.32 50.86,56.93 42.09,60.77 C33.33,64.63 24.67,68.73 16.2,73.18 L15.97,73.3 L15.82,73.09 C13.67,70.09 11.65,66.97 9.9,63.71 C8.15,60.45 6.64,57.04 5.64,53.46 L5.58,53.25 L5.78,53.15 C14.08,48.8 22.51,44.68 31.02,40.76 C39.54,36.86 48.16,33.16 56.99,29.98 C61.4,28.36 65.93,27.16 70.31,25.51 C74.73,23.96 79.18,22.48 83.64,21.06 C92.58,18.2 101.5,15.59 110.69,13.21 Z" fill="#AAAAAA"/>
  <path d="M123.93,36.28 C122.31,18.08 110.96,13.53 110.67,13.36 C108.36,13.97 106.09,14.58 103.83,15.21 C112.67,20.87 117.87,32.69 113.44,51.9 C113.4,52.07 113.36,52.23 113.31,52.4 C116.31,52.56 119.29,52.72 122.22,52.92 C122.3,52.6 122.39,52.29 122.46,51.98 C122.6,51.4 124.43,41.93 123.93,36.28 Z" fill="#AAAAAA"/>
  <path d="M114.72,33.68 L114.87,35.01 L123.93,36.28 L123.51,32.79 Z" fill="#666666"/>
  <path d="M16.5,25.43 C15.73,22.01 21.23,15.7 29.06,15.52 C36.04,15.36 35.48,21.56 30.8,24.21 C26.01,26.9 17.13,28.24 16.5,25.43 Z" fill="#FF8A80"/>
</svg>
